!!!ONB: MCCC : IWM0408_02 : Extracted Monophonic Melody
!!!COM: Mozart, Wolfgang Amadeus
!!!OPR: Piano Sonata No.8
!!!OMV: 2
!!!SCT: K.310 ; K⁶.300d ; Op.4 No.3
!!!ODT: 1778///
**kern
*thru
*staff1
*>A
*clefG2
*k[b-]
*F:
*M3/4
*MM60
16f
16a
16cc
16ff
=1
8.aa
16ff
8cc
8cc[
16cc]
16b-
16a
16b-
=2
8.b-
32cc
32b-
8.a
32c
32f
16dd
16cc
16b-
16a
=3
16a
16g
4g
[8g:
16g:]
32b-
32a
32cc
32b-
32a
32g
=4
8.f
32g
32f
4e
32f
32a
32b-
32cc
32dd
32ee
32ff
32gg
=5
8.aa
48ff
48aa
48ff
8cc
8cc[
16cc]
32dd
32cc
32cc
32b-
32a
32b-
=6
8cc
8b-
16a
16ff
16ee
16ff
16gg
16ff
16ee
16dd
=7
32cc
32cc#
32dd
32cc#
32ee
32dd
32cc
32b-
8.a
16b-
8.g
32f
32g
=8
4f
16r
16f
16a
16cc
16ff
16aa
16ccc
16ccc
=9
16.ccc
32ee
8bb-
16r
32ccc
32bb-
32aa
32gg
32ff
32ee
32dd
32cc
32aa
32gg
32ff
32ee
32dd
32cc
=10
16.b-
32g
8a
32r
32f
32g
32a
32b-
32cc
32dd
32ee
32ff
32gg
32aa
32bb-
16ccc
16ccc
=11
16.ccc
32ee
8bb-
32r
32gg
32bb-
32aa
32gg
32ff
32ee
32dd
32cc
32ee
32gg
32ff
32ee
32dd
32cc
32b-
=12
32a
32cc
32b-
32a
32b-
32cc
32dd
32ee
32ff
64ff
64ee
32ff
32gg
32aa
64aa
64gg
32aa
32bb-
16.ccc
32aa
16fff
32r
32a
=13
16g
32a
16.b-
32cc#
16.dd
32ff#
16.gg
32aa
16.bb-
32ccc#
32ddd
32ccc
32bb-
32aa
32gg
=14
8.ff
64ee
64ff
64gg
64ff
8ee
8r
4r
=15
16r
16gg
16gg
16gg
16gg
16gg
16gg
16gg
16gg
32aa
32bb-
32ccc
32bb-
32aa
32gg
=16
16ff
16ff
16ff
16ff
16ff
16ff
16ff
16ff
16ff
32ee
32dd
32cc
32b
32a
32g
=17
[2.gg
=18
2.gg]
=19
16r
16gg
16ccc
16cc
16ee
16dd
16cc#
16dd
16ff
16ee
16dd#
16ee
=20
16gg
16ff
16ee
16ff
8.ff
16gg
16aa
16aa
16aa
16aa
=21
16aa
16gg
16aa
16ff
32ee
32gg
32ff#
32ff
24ee
24ff
24dd
8.dd
32cc
32dd
=22
16r
16cc
16ccc
16bb
16aa
16a
16aa
16gg
16ff
16f
16ff
16ee
=23
16dd
16d
16dd
16cc#
16dd
16ee
16ff
16gg
16aa
16bb
16ccc
16ddd
=24
16.eee
32ccc
16.aa
32ff
8.ee
16ff
8.dd
32cc
32dd
=25
16r
16cc
16ccc
16bb
16aa
16a
16aa
16gg
16ff
16f
16ff
16ee
=26
32dd
32d
32e
32f
32g
32a
32b
32cc#
32dd
32dd
32ee
32ff
32gg
32aa
32bb
32ccc#
32ddd
32eee
32fff
32eee
32ddd
32ccc
32bb
32aa
=27
[2.gg
=28
16gg]
16aa
16bb
16ccc
2dd
=29
16cc
16cc
16dd
16ee
16ff
32gg
32aa
32gg
32ff
32ee
32dd
8cc
8b
=30
16cc
32c
32e
32d
32f
32e
32g
16f
32g
32a
32g
32f
32e
32d
8c
8B
=31
4B
8c
8r
*>A
*M3/4
16f
16a
16cc
16ff
=32
8.aa
16ff
8cc
8cc[
16cc]
16b-
16a
16b-
=33
8.b-
32cc
32b-
8.a
32c
32f
16dd
16cc
16b-
16a
=34
16a
16g
4g
[8g:
16g:]
32b-
32a
32cc
32b-
32a
32g
=35
8.f
32g
32f
4e
32f
32a
32b-
32cc
32dd
32ee
32ff
32gg
=36
8.aa
48ff
48aa
48ff
8cc
8cc[
16cc]
32dd
32cc
32cc
32b-
32a
32b-
=37
8cc
8b-
16a
16ff
16ee
16ff
16gg
16ff
16ee
16dd
=38
32cc
32cc#
32dd
32cc#
32ee
32dd
32cc
32b-
8.a
16b-
8.g
32f
32g
=39
4f
16r
16f
16a
16cc
16ff
16aa
16ccc
16ccc
=40
16.ccc
32ee
8bb-
16r
32ccc
32bb-
32aa
32gg
32ff
32ee
32dd
32cc
32aa
32gg
32ff
32ee
32dd
32cc
=41
16.b-
32g
8a
32r
32f
32g
32a
32b-
32cc
32dd
32ee
32ff
32gg
32aa
32bb-
16ccc
16ccc
=42
16.ccc
32ee
8bb-
32r
32gg
32bb-
32aa
32gg
32ff
32ee
32dd
32cc
32ee
32gg
32ff
32ee
32dd
32cc
32b-
=43
32a
32cc
32b-
32a
32b-
32cc
32dd
32ee
32ff
64ff
64ee
32ff
32gg
32aa
64aa
64gg
32aa
32bb-
16.ccc
32aa
16fff
32r
32a
=44
16g
32a
16.b-
32cc#
16.dd
32ff#
16.gg
32aa
16.bb-
32ccc#
32ddd
32ccc
32bb-
32aa
32gg
=45
8.ff
64ee
64ff
64gg
64ff
8ee
8r
4r
=46
16r
16gg
16gg
16gg
16gg
16gg
16gg
16gg
16gg
32aa
32bb-
32ccc
32bb-
32aa
32gg
=47
16ff
16ff
16ff
16ff
16ff
16ff
16ff
16ff
16ff
32ee
32dd
32cc
32b
32a
32g
=48
[2.gg
=49
2.gg]
=50
16r
16gg
16ccc
16cc
16ee
16dd
16cc#
16dd
16ff
16ee
16dd#
16ee
=51
16gg
16ff
16ee
16ff
8.ff
16gg
16aa
16aa
16aa
16aa
=52
16aa
16gg
16aa
16ff
32ee
32gg
32ff#
32ff
24ee
24ff
24dd
8.dd
32cc
32dd
=53
16r
16cc
16ccc
16bb
16aa
16a
16aa
16gg
16ff
16f
16ff
16ee
=54
16dd
16d
16dd
16cc#
16dd
16ee
16ff
16gg
16aa
16bb
16ccc
16ddd
=55
16.eee
32ccc
16.aa
32ff
8.ee
16ff
8.dd
32cc
32dd
=56
16r
16cc
16ccc
16bb
16aa
16a
16aa
16gg
16ff
16f
16ff
16ee
=57
32dd
32d
32e
32f
32g
32a
32b
32cc#
32dd
32dd
32ee
32ff
32gg
32aa
32bb
32ccc#
32ddd
32eee
32fff
32eee
32ddd
32ccc
32bb
32aa
=58
[2.gg
=59
16gg]
16aa
16bb
16ccc
2dd
=60
16cc
16cc
16dd
16ee
16ff
32gg
32aa
32gg
32ff
32ee
32dd
8cc
8b
=61
16cc
32c
32e
32d
32f
32e
32g
16f
32g
32a
32g
32f
32e
32d
8c
8B
=62
4B
8c
8r
*>B
16E
16G
16c
16e
=63
8g
8g
4g
16a
16g
16f
16e
=64
8e
8d
4d
16g
16f
16e
16d
=65
16d
16c
[8c
16c]
32d
32c
16B
16c
16e
16d
16c
16B
=66
8.c
16gg
8.gg
32ff#
32gg
16aa
16gg
16ff
16ee
=67
16dd
32gg#
32aa
32gg
32ff
32ee
32dd
8.cc
16ee
16ee
16dd
16cc
16b
=68
4cc
8r
8c
8e-
8g
=69
8g
8f#
2r
=70
8cc
8b-
8r
8d
8g
8b-
=71
8dd
8cc#
2r
=72
8g
8f
8r
8dd
8ff
8b-
=73
8a
8g#
2r
=74
24a
24aa
24a
24a
24a
24a
24a
24aa
24a
24a
24a
24a
24a
24aa
24a
24a
24a
24a
=75
24b-
24bb-
24b-
24b-
24b-
24b-
24b-
24bb-
24b-
24b-
24b-
24b-
24b-
24bb-
24b-
24b-
24b-
24b-
=76
24a
24aa
24a
24a
24a
24a
24a
24aa
24a
24a
24a
24a
24a
24aa
24a
24a
24a
24a
=77
24g
24gg
24g
24g
24g
24g
24g
24gg
24g
24g
24g
24g
24g
24gg
24g
24g
24g
24g
=78
24f
24ff
24f
24f
24f
24f
24f
24ff
24f
24f
24f
24f
24f
24ff
24f
24f
24f
24f
=79
24e-
24ee-
24e-
24e-
24e-
24e-
24e-
24ee-
24e-
24e-
24e-
24e-
24e-
24ee-
24e-
24e-
24e-
24e-
=80
24d
24dd
24d
24d
24d
24d
24d
24dd
24d
24d
24d
24d
24d
24dd
24d
24d
24d
24d
=81
24c
24cc
24cc
24cc
24cc
24cc
24cc
24b-
24dd
24dd
24cc
24cc
24cc
24b-
24b-
24b-
24a
24a
=82
8a
8g
8r
8ee
8.ff
16a-
=83
16b-
16a-
8g
2r
=84
4b
8cc
8r
16f
16a
16cc
16ff
=85
8.aa
16ff
8cc
8cc[
16cc]
16b-
16a
16b-
=86
8.b-
32cc
32b-
8.a
32c
32f
16dd
16cc
16b-
16a
=87
16a
16g
4g
[8g:
16g:]
32b-
32a
32cc
32b-
32a
32g
=88
8.f
32g
32f
4e
32f
32a
32b-
32cc
32dd
32ee
32ff
32gg
=89
8.aa
48ff
48aa
48ff
8cc
8cc[
16cc]
32dd
32cc
32cc
32b-
32a
32b-
=90
8cc
8b-
16a
16ff
16ee
16ff
16gg
16ff
16ee
16dd
=91
32cc
32cc#
32dd
32cc#
32ee
32dd
32cc
32b-
8.a
16b-
8.g
32f
32g
=92
4f
16r
16f
16a
16cc
16ff
16aa
16ccc
16ccc
=93
8bb-
8aa
16r
32ccc
32bb-
32ddd
32ccc
32eee-
32ddd
32fff
32eee-
32gg
32ff
32aa
32gg
32bb-
32aa
=94
8ccc
8bb-
32r
32f
32g
32a
32b-
32cc
32dd
32ee-
32ff
32dd
32bb-
32ff
16ddd
16ddd
=95
8ddd
8ff#
16r
16ddd
16ddd
16ddd
16ddd
16ddd
16ddd
16ddd
=96
8ddd
8gg
16r
32d
32f#
32e
32g
32f#
32a
32g
32b-
32a
32cc
32b-
32dd
32cc
32ee-
=97
16dd
32ee
32ff#
32gg
32aa
32bb-
32ccc
16ddd
16aa
16bb-
16ff#
16gg
16bb-
16dd
16gg
=98
8.ff
64ee
64ff
64gg
64ff
8ee
8r
4r
=99
16r
16cc
16cc
16cc
16cc
16cc
16cc
16cc
16cc
32dd
32ee
32ff
32ee
32dd
32cc
=100
16b-
16b-
16b-
16b-
16b-
16b-
16b-
16b-
16b-
32a
32b-
32cc
32b-
32a
32g
=101
[2.ff
=102
2.ff]
=103
16r
16ff
16bb-
16bb-
16ccc
16bb-
16aa
16bb-
16bb-
16aa
16gg#
16aa
=104
16gg
16g
16g
16g
16a
16g
16f#
16g
16b-
16a
16g#
16a
=105
16b-
16ff
16bb-
16bb-
16ccc
16bb-
16aa
16bb-
16bb-
16aa
16gg#
16aa
=106
8.gg
16aa
8.bb-
16ccc
16ddd
16ddd
16ddd
16ddd
=107
16ddd
16ccc
16ddd
16bb-
32aa
32ccc
32bb
32bb-
24aa
24bb-
24gg
8.gg
32ff
32gg
=108
16r
16f
16ff
16ee
16dd
16d
16dd
16cc
16b-
16B-
16b-
16a
=109
16g
16G
16g
16f#
16g
16a
16b-
16b
16cc
16cc#
16dd
16ee
=110
16.ff
32cc
16.dd
32b-
8.a
16b-
8.g
32f
32g
=111
16r
16ff
16fff
16eee
16ddd
16dd
16ddd
16ccc
16bb-
16b-
16bb-
16aa
=112
32gg
32g
32a
32b-
32cc
32dd
32ee
32ff#
32gg
32aa
32bb-
32ccc
32ddd
32eee
32fff
32eee
32ddd
32ccc
32bb-
32aa
32gg
32ff
32ee
32dd
=113
2.ccc:
=114
8ddd
16eee
16fff
2gg
=115
16ff
16ff
16gg
16aa
16bb-
32ccc
32ddd
32ccc
32bb-
32aa
32gg
16ff
16ee
16bb-
16ee
=116
32ff
32f
32e
32f
32f#
32g
32g#
32a
16b-
32cc
32dd
32cc
32b-
32a
32g
32f
32e
32g
32f
32e
32d
32c
32B-
=117
[2B-
8B-]
8r
==
*-
